assets/layers/bike_parking/handlebar_holder.svg

<?xml version="1.0" encoding="utf-8"?>
<!-- Generator: Adobe Illustrator 24.2.1, SVG Export Plug-In . SVG Version: 6.00 Build 0)  -->
<svg version="1.1" xmlns="http://www.w3.org/2000/svg" x="0px" y="0px"
     viewBox="0 0 300 300" style="enable-background:new 0 0 300 300;" xml:space="preserve">
<style type="text/css">
	.st0{fill:#0181C2;}
	.st1{fill:#020203;}
	.st2{fill:none;stroke:#000000;stroke-width:4.6057;}
	.st3{fill:none;stroke:#000000;stroke-width:2.3029;}
	.st4{fill:#FFFFFF;stroke:#000000;stroke-width:4;stroke-miterlimit:10;}
	.st5{fill:#E74436;}
	.st6{fill:#FCC407;}
	.st7{fill:#0682C2;}
	.st8{fill:#73B254;}
	.st9{fill:#FFFFFF;stroke:#000000;stroke-width:7.155;stroke-miterlimit:10;}
	.st10{fill:#FFFFFF;stroke:#000000;stroke-width:7.7355;stroke-miterlimit:10;}
	.st11{fill:none;stroke:#010202;stroke-width:4;stroke-miterlimit:10;}
	.st12{fill:none;stroke:#000000;stroke-width:4;stroke-miterlimit:10;}
</style>
    <g id="Laag_1">
</g>
    <g id="Isolatiemodus">
</g>
    <g id="Capa_1">
	<path class="st9" d="M119.1,90.2l14.6,72.2l55.8,10.9c16.6-15,33.2-30,49.8-45c4.2-4.3,4-11.2-0.2-15.2c-4.3-4.1-11.5-3.7-15.5,1.1
		c-12.4,11.2-24.9,22.3-37.3,33.5c-10.6-2.2-21.2-4.4-31.9-6.5c-4.1-18.8-8.2-37.6-12.3-56.4C134.6,86.7,126.8,88.5,119.1,90.2z"/>
        <path class="st10" d="M62.2,116.1L78,194.2l60.4,11.8c18-16.2,35.9-32.4,53.9-48.6c4.5-4.7,4.3-12.1-0.2-16.4
		c-4.7-4.4-12.5-4-16.8,1.2c-13.4,12.1-26.9,24.1-40.3,36.2c-11.5-2.4-23-4.7-34.4-7.1c-4.4-20.3-8.8-40.6-13.2-60.9
		C78.9,112.3,70.6,114.2,62.2,116.1z"/>
</g>
</svg>

<?xml version="1.0" encoding="UTF-8" standalone="yes"?>
<svg xmlns="http://www.w3.org/2000/svg" xmlns:xlink="http://www.w3.org/1999/xlink" width="375px" height="375px" viewBox="0 0 375 375" version="1.1">
  <g id="surface1">
    <path style="fill-rule:nonzero;fill:rgb(100%,100%,100%);fill-opacity:1;stroke-width:7.155;stroke-linecap:butt;stroke-linejoin:miter;stroke:rgb(0%,0%,0%);stroke-opacity:1;stroke-miterlimit:10;" d="M 119.1 90.2 L 133.7 162.4 L 189.5 173.3 C 206.1 158.3 222.7 143.3 239.3 128.3 C 243.5 124 243.3 117.1 239.1 113.1 C 234.8 109 227.6 109.4 223.6 114.2 C 211.2 125.4 198.7 136.5 186.3 147.7 C 175.7 145.5 165.1 143.3 154.4 141.2 C 150.3 122.4 146.2 103.6 142.1 84.8 C 134.6 86.7 126.8 88.5 119.1 90.2 Z M 119.1 90.2 " transform="matrix(1.25,0,0,1.25,0,0)"/>
    <path style="fill-rule:nonzero;fill:rgb(100%,100%,100%);fill-opacity:1;stroke-width:7.7355;stroke-linecap:butt;stroke-linejoin:miter;stroke:rgb(0%,0%,0%);stroke-opacity:1;stroke-miterlimit:10;" d="M 62.2 116.1 L 78 194.2 L 138.4 206 C 156.4 189.8 174.3 173.6 192.3 157.4 C 196.8 152.7 196.6 145.3 192.1 141 C 187.4 136.6 179.6 137 175.3 142.2 C 161.9 154.3 148.4 166.3 135 178.4 C 123.5 176 112 173.7 100.6 171.3 C 96.2 151 91.8 130.7 87.4 110.4 C 78.9 112.3 70.6 114.2 62.2 116.1 Z M 62.2 116.1 " transform="matrix(1.25,0,0,1.25,0,0)"/>
  </g>
</svg>
